lib/flags/m/BR.svg

<svg xmlns="http://www.w3.org/2000/svg" fill="none" viewBox="0 0 20 15"><mask id="BR_svg__a" width="20" height="15" x="0" y="0" mask-type="alpha" maskUnits="userSpaceOnUse"><path fill="#fff" d="M0 0H20V15H0z"/></mask><g mask="url(#BR_svg__a)"><path fill="#093" fill-rule="evenodd" d="M0 0V15H20V0H0Z" clip-rule="evenodd"/><mask id="BR_svg__b" width="20" height="15" x="0" y="0" mask-type="alpha" maskUnits="userSpaceOnUse"><path fill="#fff" fill-rule="evenodd" d="M0 0V15H20V0H0Z" clip-rule="evenodd"/></mask><g mask="url(#BR_svg__b)"><g fill-rule="evenodd" clip-rule="evenodd" filter="url(#BR_svg__c)"><path fill="#FFD221" d="M9.95424 2.31503L17.5804 7.62969L9.8505 12.607L2.38058 7.52667L9.95424 2.31503Z"/><path fill="url(#BR_svg__d)" d="M9.95424 2.31503L17.5804 7.62969L9.8505 12.607L2.38058 7.52667L9.95424 2.31503Z"/></g><path fill="#2E42A5" fill-rule="evenodd" d="M10 10.75C11.7259 10.75 13.125 9.35089 13.125 7.625C13.125 5.89911 11.7259 4.5 10 4.5C8.27411 4.5 6.875 5.89911 6.875 7.625C6.875 9.35089 8.27411 10.75 10 10.75Z" clip-rule="evenodd"/><mask id="BR_svg__e" width="8" height="7" x="6" y="4" mask-type="alpha" maskUnits="userSpaceOnUse"><path fill="#fff" fill-rule="evenodd" d="M10 10.75C11.7259 10.75 13.125 9.35089 13.125 7.625C13.125 5.89911 11.7259 4.5 10 4.5C8.27411 4.5 6.875 5.89911 6.875 7.625C6.875 9.35089 8.27411 10.75 10 10.75Z" clip-rule="evenodd"/></mask><g fill="#F7FCFF" mask="url(#BR_svg__e)"><path fill-rule="evenodd" d="M8.9875 9.10625 8.8479 9.17964 8.87456 9.0242 8.76162 8.91411 8.9177 8.89143 8.9875 8.75 9.0573 8.89143 9.21338 8.91411 9.10044 9.0242 9.1271 9.17964 8.9875 9.10625zM10.2375 9.10625 10.0979 9.17964 10.1246 9.0242 10.0116 8.91411 10.1677 8.89143 10.2375 8.75 10.3073 8.89143 10.4634 8.91411 10.3504 9.0242 10.3771 9.17964 10.2375 9.10625zM10.2375 9.85625 10.0979 9.92964 10.1246 9.7742 10.0116 9.66411 10.1677 9.64143 10.2375 9.5 10.3073 9.64143 10.4634 9.66411 10.3504 9.7742 10.3771 9.92964 10.2375 9.85625zM9.6125 7.23125 9.4729 7.30464 9.49956 7.1492 9.38662 7.03911 9.5427 7.01643 9.6125 6.875 9.6823 7.01643 9.83838 7.03911 9.72544 7.1492 9.7521 7.30464 9.6125 7.23125zM9.6125 8.48125 9.4729 8.55464 9.49956 8.3992 9.38662 8.28911 9.5427 8.26643 9.6125 8.125 9.6823 8.26643 9.83838 8.28911 9.72544 8.3992 9.7521 8.55464 9.6125 8.48125zM8.7375 7.85625 8.5979 7.92964 8.62456 7.7742 8.51162 7.66411 8.6677 7.64143 8.7375 7.5 8.8073 7.64143 8.96338 7.66411 8.85044 7.7742 8.8771 7.92964 8.7375 7.85625zM7.8625 8.35625 7.7229 8.42964 7.74956 8.2742 7.63662 8.16411 7.7927 8.14143 7.8625 8 7.9323 8.14143 8.08838 8.16411 7.97544 8.2742 8.0021 8.42964 7.8625 8.35625zM10.7375 6.23125 10.5979 6.30464 10.6246 6.1492 10.5116 6.03911 10.6677 6.01643 10.7375 5.875 10.8073 6.01643 10.9634 6.03911 10.8504 6.1492 10.8771 6.30464 10.7375 6.23125z" clip-rule="evenodd"/><path d="M6.203 6.87317L6.29699 5.62671C9.2957 5.85283 11.6625 6.83881 13.3676 8.5927L12.4714 9.46403C10.9935 7.94389 8.91399 7.07759 6.203 6.87317Z"/></g></g></g><defs><filter id="BR_svg__c" width="15.2" height="10.292" x="2.381" y="2.315" color-interpolation-filters="sRGB" filterUnits="userSpaceOnUse"><feFlood flood-opacity="0" result="BackgroundImageFix"/><feColorMatrix in="SourceAlpha" values="0 0 0 0 0 0 0 0 0 0 0 0 0 0 0 0 0 0 127 0"/><feOffset/><feColorMatrix values="0 0 0 0 0.0313726 0 0 0 0 0.368627 0 0 0 0 0 0 0 0 0.28 0"/><feBlend in2="BackgroundImageFix" result="effect1_dropShadow"/><feBlend in="SourceGraphic" in2="effect1_dropShadow" result="shape"/></filter><linearGradient id="BR_svg__d" x1="20" x2="20" y1="15" y2="0" gradientUnits="userSpaceOnUse"><stop stop-color="#FFC600"/><stop offset="1" stop-color="#FFDE42"/></linearGradient></defs></svg>

<svg xmlns="http://www.w3.org/2000/svg" fill="none" viewBox="0 0 20 15"><mask id="BR_svg__a" width="20" height="15" x="0" y="0" maskUnits="userSpaceOnUse"><path fill="#fff" d="M0 0h20v15H0z"/></mask><g mask="url(#BR_svg__a)"><path fill="#093" fill-rule="evenodd" d="M0 0v15h20V0H0z" clip-rule="evenodd"/><mask id="BR_svg__b" width="20" height="15" x="0" y="0" maskUnits="userSpaceOnUse"><path fill="#fff" fill-rule="evenodd" d="M0 0v15h20V0H0z" clip-rule="evenodd"/></mask><g mask="url(#BR_svg__b)"><g fill-rule="evenodd" clip-rule="evenodd" filter="url(#BR_svg__c)"><path fill="#FFD221" d="M9.954 2.315L17.58 7.63l-7.73 4.977-7.47-5.08 7.574-5.212z"/><path fill="url(#BR_svg__d)" d="M9.954 2.315L17.58 7.63l-7.73 4.977-7.47-5.08 7.574-5.212z"/></g><path fill="#2E42A5" fill-rule="evenodd" d="M10 10.75a3.125 3.125 0 100-6.25 3.125 3.125 0 000 6.25z" clip-rule="evenodd"/><mask id="BR_svg__e" width="8" height="7" x="6" y="4" maskUnits="userSpaceOnUse"><path fill="#fff" fill-rule="evenodd" d="M10 10.75a3.125 3.125 0 100-6.25 3.125 3.125 0 000 6.25z" clip-rule="evenodd"/></mask><g fill="#F7FCFF" mask="url(#BR_svg__e)"><path fill-rule="evenodd" d="M8.988 9.106l-.14.074.027-.156-.113-.11.156-.023.07-.141.07.141.155.023-.113.11.027.156-.14-.074zm1.25 0l-.14.074.027-.156-.113-.11.156-.023.07-.141.07.141.155.023-.113.11.027.156-.14-.074zm0 .75l-.14.074.027-.156-.113-.11.156-.023.07-.141.07.141.155.023-.113.11.027.156-.14-.074zm-.625-2.625l-.14.074.027-.156-.113-.11.156-.023.07-.141.07.141.155.023-.113.11.027.156-.14-.074zm0 1.25l-.14.074.027-.156-.113-.11.156-.023.07-.141.07.141.155.023-.113.11.027.156-.14-.074zm-.876-.625l-.14.074.028-.156-.113-.11.156-.023.07-.141.07.141.155.023-.113.11.027.156-.14-.074zm-.875.5l-.14.074.028-.156-.113-.11.156-.023.07-.141.07.141.155.023-.113.11.027.156-.14-.074zm2.876-2.125l-.14.074.027-.156-.113-.11.156-.023.07-.141.07.141.155.023-.112.11.026.156-.14-.074z" clip-rule="evenodd"/><path d="M6.203 6.873l.094-1.246c2.999.226 5.365 1.212 7.07 2.966l-.896.871c-1.478-1.52-3.557-2.386-6.268-2.59z"/></g></g></g><defs><linearGradient id="BR_svg__d" x1="20" x2="20" y1="15" y2="0" gradientUnits="userSpaceOnUse"><stop stop-color="#FFC600"/><stop offset="1" stop-color="#FFDE42"/></linearGradient><filter id="BR_svg__c" width="15.2" height="10.292" x="2.381" y="2.315" color-interpolation-filters="sRGB" filterUnits="userSpaceOnUse"><feFlood flood-opacity="0" result="BackgroundImageFix"/><feColorMatrix in="SourceAlpha" values="0 0 0 0 0 0 0 0 0 0 0 0 0 0 0 0 0 0 127 0"/><feOffset/><feColorMatrix values="0 0 0 0 0.0313726 0 0 0 0 0.368627 0 0 0 0 0 0 0 0 0.28 0"/><feBlend in2="BackgroundImageFix" result="effect1_dropShadow"/><feBlend in="SourceGraphic" in2="effect1_dropShadow" result="shape"/></filter></defs></svg>
